s.boot;

(
z = {
	arg noiseHz=8;
	var freq, amp, sig;
	freq = LFNoise0.kr(noiseHz).exprange(200, 1000);
	amp = LFNoise1.kr(12).exprange(0.02, 1);
	sig = SinOsc.ar(freq)*amp;
}.play;
)

(
SynthDef.new(\sineTest, {
	arg noiseHz=8;
	var freq, amp, sig;
	freq = LFNoise0.kr(noiseHz).exprange(200, 1000);
	amp = LFNoise1.kr(12).exprange(0.02, 1);
	sig = SinOsc.ar(freq)*amp;
	Out.ar(0, sig);
}).add;
)

x = Synth.new(\sineTest, [\noiseHz, 32]);

x.set(\noiseHz, 12);

x.free;
	